X: 21
T: the Groves of Blackpool   #2
R: air, jig
%S: s:2 b:16(8+8)
B: "O'Neill's 1850 #21"
Q: "Moderate"
O: F.O'Neill
Z: Norbert Paap, norbertp@bdu.uva.nl
M: 6/8
L: 1/8
K: Cm
c \
| B>AG GAF | EC3 zD | EFG [1 G=A=B | c3- c2 :|[2 FED | C3- C2 |] (c/d/) | e>de fdc |
| BG3 zG | c>de fde | f3- f2f || (efg) {g}fed | ec3 zc | BAG FG=B | c3- c2 |]
